X: 50
T:Nixon's Farewell
C:Curt Bouterse
M:C|
L:1/8
R:Reel
K:D
S:https://tunearch.org/wiki/Nixon%27s_Farewell
"D"FA- A2 A3 A|"G"BABc d2e2|"D"fdfd g2f2|"A"e6 (3ABc|
"D"d2A2F2A2|"G"BABc d2g2|"D"fedf  "A"e2c2|1 "D"d4d4:|2 "D"d6||
|:e2|"D"fdfd "G"gdgd|"D"fgfe d2e2|fdfd "G"gdgd|"A"e6e2|
"D"fdfd "G"gdgd|"D"fgfe d2a2|fedf "A"e2c2|1 "D"d6:|2"D"D4D4||

